src/topics/icons/mapbox.svg

<svg height="256" preserveAspectRatio="xMidYMid" viewBox="0 0 256 256" width="256" xmlns="http://www.w3.org/2000/svg"><path d="m128 0c-70.6951631 0-128 57.3048369-128 128 0 70.695163 57.3048369 128 128 128 70.695163 0 128-57.304837 128-128 0-70.6951631-57.304837-128-128-128zm60.760405 159.388076c-43.770529 43.770529-121.952756 29.804275-121.952756 29.804275s-14.1102362-78.038245 29.8042745-121.9527559c24.3329585-24.3329584 64.6479195-23.3250844 90.1327335 2.015748s26.348706 65.7997749 2.015748 90.1327329zm-46.074241-84.3734528-12.526434 25.7727788-25.772778 12.526434 25.772778 12.526434 12.526434 25.772778 12.526434-25.772778 25.772779-12.526434-25.772779-12.526434z" fill="#4264fb"/></svg>

<?xml version="1.0" encoding="UTF-8"?>
<svg width="256px" height="256px" viewBox="0 0 256 256" version="1.1" xmlns="http://www.w3.org/2000/svg" xmlns:xlink="http://www.w3.org/1999/xlink" preserveAspectRatio="xMidYMid">
    <g>
        <path d="M128,0 C57.3048369,0 0,57.3048369 0,128 C0,198.695163 57.3048369,256 128,256 C198.695163,256 256,198.695163 256,128 C256,57.3048369 198.695163,0 128,0 Z M188.760405,159.388076 C144.989876,203.158605 66.807649,189.192351 66.807649,189.192351 C66.807649,189.192351 52.6974128,111.154106 96.6119235,67.2395951 C120.944882,42.9066367 161.259843,43.9145107 186.744657,69.2553431 C212.229471,94.5961755 213.093363,135.055118 188.760405,159.388076 L188.760405,159.388076 Z M142.686164,75.0146232 L130.15973,100.787402 L104.386952,113.313836 L130.15973,125.84027 L142.686164,151.613048 L155.212598,125.84027 L180.985377,113.313836 L155.212598,100.787402 L142.686164,75.0146232 Z" fill="#4264FB" fill-rule="nonzero"></path>
    </g>
</svg>
